X: 6078
T: Captain Bing
R: polka
M: 2/4
K: Dmajor
|:dc dA|FD DE/F/|GE ed|cA Bc|
dc dA|FD DE/F/|GE CE|1 DA Bc:|2 D2 DE||
|:FD AD|FD DE/F/|GE BE|GE ED/E/|
FD AD|FD DE/F/|GE CE|1 D2 DE:|2 DA Bc||

